packages/components/src/telekom/icons/device/camera/default.svg

<svg width="24" height="24" xmlns="http://www.w3.org/2000/svg"><path d="M20 5v3.8L21.8 7h1.7v10h-1.7L20 15.2V17a3.01 3.01 0 01-2.824 2.995L17 20H5a3.01 3.01 0 01-2.995-2.824L2 17v-6.5H.5v-4H2V5h18zm-1.5 1.5h-15V17c0 .8.576 1.423 1.352 1.493L5 18.5h12c.8 0 1.423-.576 1.493-1.352L18.5 17V6.5zM9 9.25l5 3.25-5 3.25v-6.5zm13-.35l-2 2v2.2l2 2V8.9z" fill="#000" fill-rule="evenodd"/></svg>

<svg height="24" width="24" xmlns="http://www.w3.org/2000/svg"><path d="m20 5v3.8l1.8-1.8h1.7v10h-1.7l-1.8-1.8v1.8c0 1.65-1.35 3-3 3h-12c-1.65 0-3-1.35-3-3v-6.5h-1.5v-4h1.5v-1.5zm-1.5 1.5h-15v10.5c0 .85.65 1.5 1.5 1.5h12c.85 0 1.5-.65 1.5-1.5zm-9.5 2.75 5 3.25-5 3.25zm13-.35-2 2v2.2l2 2z" fill="#262626" fill-rule="evenodd"/></svg>
